!!!OTL: Graf und Nonne (Die Nonne) Ich stand am hohen Bergelein
!!!ARE: Europa, Suedosteuropa, Rumaenien, Siebenbuergen
!!!YOR: 8, S. 287
!!    1909 gedruckt
!!!SCT: Q01552
!!!YEM: Copyright 1995, estate of Helmut Schaffrath.
**kern
*ICvox
*Ivox
*M4/4
*k[b-e-]
*g:
{4d
=1
4g
4a
4b-
4cc
=2
4b-
4a
4g}
{4g
=3
4dd
8dd
8dd
4dd
4gg
=4
2dd
4r}
{4dd
=5
4gg
4dd
4ee-
4cc
=6
2dd
4cc}
{4b-
=7
4a
4cc
4b-
4a
=8
4g
4b-
4dd}
{4dd
=9
4gg
4dd
4ee-
4cc
=10
2dd
4cc}
{4b-
=11
4a
4cc
4b-
4a
=12
2g
4r}
==
!!!AGN: Ballade, Standesunterschied, vergebliche Werbung, Liebe, Klage
!!!ONB: ESAC (Essen Associative Code) Database: BALLADE
!!!AMT: simple quadruple
!!!AIN: vox
!!!EED: Helmut Schaffrath
!!!EEV: 1.0
*-
